X: 37
T: No_43_Make_the_Girls_Happy.krn
N: Derived from No_43_Make_the_Girls_Happy.krn
%%abc-version 2.0
%%abcx-abcm2ps-target-version 5.9.1 (29 Sep 2008)
%%abc-creator hum2abc beta
%%abcx-conversion-date 2019/03/15 08:35:01
%%humdrum-veritas 638119615
%%humdrum-veritas-data 1852782560
%%linebreak <none>
%%barnumbers 0
L: 1/16
M: 3/8
K: C clef=bass
[K:clef=bass][M:3/8]z4D2 | 
C4DD | 
(C2D) z CC | 
(A,2C2)CC | 
C2C z D2 | 
(C2D) z DD | 
(C2A,) z CC | 
C4CC | 
C2 z2 E2 ]|:  
[M:5/8]E2D2C2D2D2 | 
D2C2A,2C z D2 | 
C2D2C2D2CC | 
[M:3/8]C2C2DD | 
C2C2CC | 
C2 z2 ED | 
(C2D) z DD | 
(C2A,) z CC | 
C4CC | 
C2 z2 E2 :|]  
C2z4 |]  



